src/topics/icons/memcached.svg

<svg height="254" viewBox="0 0 254 254" width="254" xmlns="http://www.w3.org/2000/svg" xmlns:xlink="http://www.w3.org/1999/xlink"><linearGradient id="a" x1="50.000006%" x2="50.000006%" y1="100%" y2="-.000004%"><stop offset="0" stop-color="#574c4a"/><stop offset="1" stop-color="#80716d"/></linearGradient><linearGradient id="b" x1="88.778214%" x2="30.149499%" y1="98.342126%" y2="-8.6799%"><stop offset="0" stop-color="#268d83"/><stop offset="1" stop-color="#2ea19e"/></linearGradient><linearGradient id="c"><stop offset="0" stop-color="#db7c7c"/><stop offset="1" stop-color="#c83737"/></linearGradient><radialGradient id="d" cx="41.406333%" cy="42.708333%" r="50%" xlink:href="#c"/><radialGradient id="e" cx="44.270833%" cy="42.708333%" r="50%" xlink:href="#c"/><path d="m0 171.18976v-89.0186689c0-71.8996849 10.2607175-82.17106471 82.0863208-82.17106471h89.1885002c71.825339 0 82.086004 10.27137981 82.086004 82.17106471v89.0186689c0 71.899711-10.260665 82.171091-82.086004 82.171091h-89.1885002c-71.8256033 0-82.0863208-10.27138-82.0863208-82.171091z" fill="url(#a)"/><g transform="translate(45.789223 47.097648)"><path d="m8.89120419.65492176c-12.45362412 78.92784324-5.93814435 152.82474324-5.93814435 152.82474324h38.92783516c-3.7039954-19.703418-16.9918997-109.7234139-5.9381443-110.0206194 5.9239482.9402986 32.9896908 76.3711344 32.9896908 76.3711344s5.9606539-.742268 11.9587629-.742268c5.9981091 0 11.958763.742268 11.958763.742268s27.0657456-75.4308437 32.9896906-76.3711344c11.053779.2971844-2.234162 90.3172254-5.938144 110.0206194h38.927835s6.515477-73.8969237-5.938144-152.82474324h-36.041238c-6.859997.08113617-32.9596777 45.85567024-35.9587626 45.85567024-2.9990848 0-29.0987653-45.77453407-35.958763-45.85567024z" fill="url(#b)"/><path d="m73.2135967 144.266563c0 5.088266-4.1248545 9.213121-9.2131203 9.213121-5.0882659 0-9.2131204-4.124855-9.2131204-9.213121s4.1248545-9.21312 9.2131204-9.21312c5.0882658 0 9.2131203 4.124854 9.2131203 9.21312z" fill="url(#d)"/><path d="m106.995038 144.266563c0 5.088266-4.124854 9.213121-9.2131202 9.213121-5.0882659 0-9.2131204-4.124855-9.2131204-9.213121s4.1248545-9.21312 9.2131204-9.21312c5.0882662 0 9.2131202 4.124854 9.2131202 9.21312z" fill="url(#e)"/><path d="m151.056318 3.26419253c5.617873 38.02593667 6.935966 74.52070827 6.832571 101.70527447-.105757 27.805804-1.698715 45.871022-1.698715 45.871022h-32.767061l-3.521599 2.639176h38.927835s6.515477-73.8969237-5.938144-152.82474324zm-103.1548044-.95978623c10.2264083 11.375397 27.9137598 41.5670105 30.3505156 41.5670105-6.484224-8.2928456-22.4115095-34.74870911-30.3505156-41.5670105zm-14.5979382 38.5154641c-11.0537475.297216 2.2341622 90.3171936 5.9381444 110.0206186h-33.98209203l-2.30656793 2.639176h38.92783516c-3.6852255-19.60357-16.8562435-108.8242654-6.1030928-110.0206194-1.0013427-1.503868-1.866203-2.5426659-2.4742268-2.6391752zm89.8969076 0c-5.923946.9402906-32.9896909 76.3711346-32.9896909 76.3711346s-5.9606539-.742268-11.9587629-.742268c-3.5489703 0-6.604296.218682-8.6703611.411209l-.6492266 2.970234s5.9606539-.742268 11.9587629-.742268c5.9981091 0 11.958763.742268 11.958763.742268s26.8619296-74.9360089 32.9072166-76.3711344c-.65142-1.6501575-1.456257-2.6095795-2.556701-2.6391752z" opacity=".1"/><path d="m8.89120419.65492176c-12.45362412 78.92784324-5.93814435 152.82474324-5.93814435 152.82474324l2.29215012-2.576398c-1.17292339-17.434323-4.30661412-80.4811955 6.28516954-147.60916997h36.0412372c.7635055.00897319 1.7872838.63452107 2.9690722 1.64948454-2.35994-2.62509263-4.3219979-4.2734476-5.6082475-4.28865981zm107.95876281 0c-6.859997.08112825-32.9596777 45.85567024-35.9587626 45.85567024 1.2230203 1.5641495 2.2162343 2.6391753 2.6391753 2.6391753 2.9990849 0 29.0987653-45.77459481 35.9587633-45.85567027h31.805669l1.596393-2.63917527zm-78.4329895 45.44329914c8.7546775 13.1482418 30.515464 73.7319591 30.515464 73.7319591l.636738-2.954195c-5.3726483-14.732101-25.8439655-69.9613854-30.9872536-70.7777641-.0560164.001507-.1101776-.0060939-.1649484 0zm90.0618555 0c5.872224 14.9772246-5.243735 89.6483891-8.577319 107.3814441l3.531311-2.756292c4.507638-26.446415 15.361861-104.347722 5.046008-104.6251521z" fill="#fff" opacity=".3"/></g></svg>

<?xml version="1.0" encoding="UTF-8" standalone="no"?>
<svg width="254px" height="254px" viewBox="0 0 254 254" version="1.1" xmlns="http://www.w3.org/2000/svg" xmlns:xlink="http://www.w3.org/1999/xlink">
    <defs>
        <linearGradient x1="50.0000061%" y1="100%" x2="50.0000061%" y2="-3.50000005e-06%" id="linearGradient-1">
            <stop stop-color="#574C4A" offset="0%"></stop>
            <stop stop-color="#80716D" offset="100%"></stop>
        </linearGradient>
        <linearGradient x1="88.778214%" y1="98.3421257%" x2="30.1494986%" y2="-8.67989994%" id="linearGradient-2">
            <stop stop-color="#268D83" offset="0%"></stop>
            <stop stop-color="#2EA19E" offset="100%"></stop>
        </linearGradient>
        <radialGradient cx="41.4063333%" cy="42.7083333%" fx="41.4063333%" fy="42.7083333%" r="50%" id="radialGradient-3">
            <stop stop-color="#DB7C7C" offset="0%"></stop>
            <stop stop-color="#C83737" offset="100%"></stop>
        </radialGradient>
        <radialGradient cx="44.2708333%" cy="42.7083333%" fx="44.2708333%" fy="42.7083333%" r="50%" id="radialGradient-4">
            <stop stop-color="#DB7C7C" offset="0%"></stop>
            <stop stop-color="#C83737" offset="100%"></stop>
        </radialGradient>
    </defs>
        <g>
            <path d="M0,171.18976 L0,82.1710911 C0,10.2714062 10.2607175,2.63917525e-05 82.0863208,2.63917525e-05 L171.274821,2.63917525e-05 C243.10016,2.63917525e-05 253.360825,10.2714062 253.360825,82.1710911 L253.360825,171.18976 C253.360825,243.089471 243.10016,253.360851 171.274821,253.360851 L82.0863208,253.360851 C10.2607175,253.360851 0,243.089471 0,171.18976 L0,171.18976 Z" fill="url(#linearGradient-1)"></path>
            <g transform="translate(45.789223, 47.097648)">
                <path d="M8.89120419,0.65492176 C-3.56241993,79.582765 2.95305984,153.479665 2.95305984,153.479665 L41.880895,153.479665 C38.1768996,133.776247 24.8889953,43.7562511 35.9427507,43.4590456 C41.8666989,44.3993442 68.9324415,119.83018 68.9324415,119.83018 C68.9324415,119.83018 74.8930954,119.087912 80.8912044,119.087912 C86.8893135,119.087912 92.8499674,119.83018 92.8499674,119.83018 C92.8499674,119.83018 119.915713,44.3993363 125.839658,43.4590456 C136.893437,43.75623 123.605496,133.776271 119.901514,153.479665 L158.829349,153.479665 C158.829349,153.479665 165.344826,79.5827413 152.891205,0.65492176 L116.849967,0.65492176 C109.98997,0.736057926 83.8902893,46.510592 80.8912044,46.510592 C77.8921196,46.510592 51.7924391,0.736057926 44.9324414,0.65492176 L8.89120419,0.65492176 L8.89120419,0.65492176 Z" fill="url(#linearGradient-2)"></path>
                <path d="M73.2135967,144.266563 C73.2135967,149.354829 69.0887422,153.479684 64.0004764,153.479684 C58.9122105,153.479684 54.787356,149.354829 54.787356,144.266563 C54.787356,139.178297 58.9122105,135.053443 64.0004764,135.053443 C69.0887422,135.053443 73.2135967,139.178297 73.2135967,144.266563 L73.2135967,144.266563 Z" fill="url(#radialGradient-3)"></path>
                <path d="M106.995038,144.266563 C106.995038,149.354829 102.870184,153.479684 97.7819178,153.479684 C92.6936519,153.479684 88.5687974,149.354829 88.5687974,144.266563 C88.5687974,139.178297 92.6936519,135.053443 97.7819178,135.053443 C102.870184,135.053443 106.995038,139.178297 106.995038,144.266563 L106.995038,144.266563 Z" fill="url(#radialGradient-4)"></path>
                <path d="M151.056318,3.26419253 C156.674191,41.2901292 157.992284,77.7849008 157.888889,104.969467 C157.783132,132.775271 156.190174,150.840489 156.190174,150.840489 L123.423113,150.840489 L119.901514,153.479665 L158.829349,153.479665 C158.829349,153.479665 165.344826,79.5827413 152.891205,0.65492176 L151.056318,3.26419253 Z M47.9015136,2.3044063 C58.1279219,13.6798033 75.8152734,43.8714168 78.2520292,43.8714168 C71.7678052,35.5785712 55.8405197,9.12270769 47.9015136,2.3044063 L47.9015136,2.3044063 Z M33.3035754,40.8198704 C22.2498279,41.1170864 35.5377376,131.137064 39.2417198,150.840489 L5.25962777,150.840489 L2.95305984,153.479665 L41.880895,153.479665 C38.1956695,133.876095 25.0246515,44.6553996 35.7778022,43.4590456 C34.7764595,41.9551776 33.9115992,40.9163797 33.3035754,40.8198704 L33.3035754,40.8198704 Z M123.200483,40.8198704 C117.276537,41.760161 90.2107921,117.191005 90.2107921,117.191005 C90.2107921,117.191005 84.2501382,116.448737 78.2520292,116.448737 C74.7030589,116.448737 71.6477332,116.667419 69.5816681,116.859946 L68.9324415,119.83018 C68.9324415,119.83018 74.8930954,119.087912 80.8912044,119.087912 C86.8893135,119.087912 92.8499674,119.83018 92.8499674,119.83018 C92.8499674,119.83018 119.711897,44.8941711 125.757184,43.4590456 C125.105764,41.8088881 124.300927,40.8494661 123.200483,40.8198704 L123.200483,40.8198704 Z" opacity="0.1" fill="#000000"></path>
                <path d="M8.89120419,0.65492176 C-3.56241993,79.582765 2.95305984,153.479665 2.95305984,153.479665 L5.24520996,150.903267 C4.07228657,133.468944 0.938595837,70.4220715 11.5303795,3.29409703 L47.5716167,3.29409703 C48.3351222,3.30307022 49.3589005,3.9286181 50.5406889,4.94358157 C48.1807489,2.31848894 46.218691,0.670133967 44.9324414,0.65492176 L8.89120419,0.65492176 Z M116.849967,0.65492176 C109.98997,0.736050008 83.8902893,46.510592 80.8912044,46.510592 C82.1142247,48.0747415 83.1074387,49.1497673 83.5303797,49.1497673 C86.5294646,49.1497673 112.629145,3.37517249 119.489143,3.29409703 L151.294812,3.29409703 L152.891205,0.65492176 L116.849967,0.65492176 Z M38.4169775,46.0982209 C47.171655,59.2464627 68.9324415,119.83018 68.9324415,119.83018 L69.5691795,116.875985 C64.1965312,102.143884 43.725214,46.9145996 38.5819259,46.0982209 C38.5259095,46.0997279 38.4717483,46.092127 38.4169775,46.0982209 L38.4169775,46.0982209 Z M128.478833,46.0982209 C134.351057,61.0754455 123.235098,135.74661 119.901514,153.479665 L123.432825,150.723373 C127.940463,124.276958 138.794686,46.375651 128.478833,46.0982209 L128.478833,46.0982209 Z" opacity="0.3" fill="#FFFFFF"></path>
            </g>
        </g>
</svg>
